blockchains/ethereum/assets/0x6De037ef9aD2725EB40118Bb1702EBb27e4Aeb24/logo.svg

<svg fill="none" height="250" viewBox="0 0 250 250" width="250" xmlns="http://www.w3.org/2000/svg"><circle cx="125" cy="125" fill="#cf1011" r="125"/><path clip-rule="evenodd" d="m125 54.4245c-38.9763 0-70.5728 31.5965-70.5728 70.5725 0 38.977 31.5965 70.573 70.5728 70.573 38.976 0 70.573-31.596 70.573-70.573 0-38.976-31.597-70.5725-70.573-70.5725zm-77.8645 70.5725c0-43.003 34.8612-77.8642 77.8645-77.8642 43.003 0 77.865 34.8612 77.865 77.8642 0 43.004-34.862 77.865-77.865 77.865-43.0033 0-77.8645-34.861-77.8645-77.865z" fill="#fff" fill-rule="evenodd"/><path d="m78.125 91.7969-19.5312-19.5313-11.7188-13.6718 23.4375-23.4376h56.6405v39.0626z" fill="#cf1011"/><g fill="#fff"><path clip-rule="evenodd" d="m82.0312 82.5521c8.9171 0 16.1459-7.2288 16.1459-16.1459 0-8.917-7.2288-16.1458-16.1459-16.1458-8.917 0-16.1458 7.2288-16.1458 16.1458 0 8.9171 7.2288 16.1459 16.1458 16.1459zm0 7.2917c12.9442 0 23.4378-10.4934 23.4378-23.4376 0-12.9441-10.4936-23.4374-23.4378-23.4374-12.9441 0-23.4374 10.4933-23.4374 23.4374 0 12.9442 10.4933 23.4376 23.4374 23.4376z" fill-rule="evenodd"/><path clip-rule="evenodd" d="m82.0312 82.5521c8.9171 0 16.1459-7.2288 16.1459-16.1459 0-8.917-7.2288-16.1458-16.1459-16.1458-8.917 0-16.1458 7.2288-16.1458 16.1458 0 8.9171 7.2288 16.1459 16.1458 16.1459zm0 7.2917c12.9442 0 23.4378-10.4934 23.4378-23.4376 0-12.9441-10.4936-23.4374-23.4378-23.4374-12.9441 0-23.4374 10.4933-23.4374 23.4374 0 12.9442 10.4933 23.4376 23.4374 23.4376z" fill-rule="evenodd"/><circle cx="125" cy="125" r="27.3438"/></g></svg>

<svg width="250" height="250" viewBox="0 0 250 250" fill="none" xmlns="http://www.w3.org/2000/svg">
<circle cx="125" cy="125" r="125" fill="#CF1011"/>
<path fill-rule="evenodd" clip-rule="evenodd" d="M125 54.4245C86.0237 54.4245 54.4272 86.021 54.4272 124.997C54.4272 163.974 86.0237 195.57 125 195.57C163.976 195.57 195.573 163.974 195.573 124.997C195.573 86.021 163.976 54.4245 125 54.4245ZM47.1355 124.997C47.1355 81.994 81.9967 47.1328 125 47.1328C168.003 47.1328 202.865 81.994 202.865 124.997C202.865 168.001 168.003 202.862 125 202.862C81.9967 202.862 47.1355 168.001 47.1355 124.997Z" fill="white"/>
<path d="M78.125 91.7969L58.5938 72.2656L46.875 58.5938L70.3125 35.1562H126.953V74.2188L78.125 91.7969Z" fill="#CF1011"/>
<path fill-rule="evenodd" clip-rule="evenodd" d="M82.0312 82.5521C90.9483 82.5521 98.1771 75.3233 98.1771 66.4062C98.1771 57.4892 90.9483 50.2604 82.0312 50.2604C73.1142 50.2604 65.8854 57.4892 65.8854 66.4062C65.8854 75.3233 73.1142 82.5521 82.0312 82.5521ZM82.0312 89.8438C94.9754 89.8438 105.469 79.3504 105.469 66.4062C105.469 53.4621 94.9754 42.9688 82.0312 42.9688C69.0871 42.9688 58.5938 53.4621 58.5938 66.4062C58.5938 79.3504 69.0871 89.8438 82.0312 89.8438Z" fill="white"/>
<path fill-rule="evenodd" clip-rule="evenodd" d="M82.0312 82.5521C90.9483 82.5521 98.1771 75.3233 98.1771 66.4062C98.1771 57.4892 90.9483 50.2604 82.0312 50.2604C73.1142 50.2604 65.8854 57.4892 65.8854 66.4062C65.8854 75.3233 73.1142 82.5521 82.0312 82.5521ZM82.0312 89.8438C94.9754 89.8438 105.469 79.3504 105.469 66.4062C105.469 53.4621 94.9754 42.9688 82.0312 42.9688C69.0871 42.9688 58.5938 53.4621 58.5938 66.4062C58.5938 79.3504 69.0871 89.8438 82.0312 89.8438Z" fill="white"/>
<circle cx="125" cy="125" r="27.3438" fill="white"/>
</svg>
